src/gui/emoticons/glasses-cool.svg

<svg xmlns="http://www.w3.org/2000/svg" xmlns:xlink="http://www.w3.org/1999/xlink" width="16pt" height="16pt" version="1.1" viewBox="0 0 16 16"><defs><linearGradient id="linear0" x1="63.992" x2="63.992" y1="20.702" y2="106.73" gradientTransform="matrix(0.125,0,0,0.125,0,0)" gradientUnits="userSpaceOnUse"><stop offset=".5" style="stop-color:#fee133;stop-opacity:1"/><stop offset=".612" style="stop-color:#fede32;stop-opacity:1"/><stop offset=".708" style="stop-color:#fcd32f;stop-opacity:1"/><stop offset=".797" style="stop-color:#fac12b;stop-opacity:1"/><stop offset=".883" style="stop-color:#f7a924;stop-opacity:1"/><stop offset=".9" style="stop-color:#f6a323;stop-opacity:1"/></linearGradient></defs><g id="surface1"><path style="stroke:none;fill-rule:nonzero;fill:url(#linear0)" d="M 8 14.832031 C 4.585938 14.832031 0.910156 12.695312 0.910156 8 C 0.910156 3.304688 4.585938 1.167969 8 1.167969 C 9.890625 1.167969 11.640625 1.796875 12.929688 2.933594 C 14.34375 4.175781 15.085938 5.929688 15.085938 8 C 15.085938 10.0625 14.34375 11.808594 12.929688 13.058594 C 11.640625 14.203125 9.886719 14.832031 8 14.832031 Z M 8 14.832031"/><path style="stroke:none;fill-rule:nonzero;fill:#eb8f00;fill-opacity:1" d="M 8 1.417969 C 9.828125 1.417969 11.523438 2.023438 12.765625 3.121094 C 14.121094 4.316406 14.835938 6.003906 14.835938 8 C 14.835938 9.988281 14.121094 11.671875 12.765625 12.871094 C 11.519531 13.972656 9.828125 14.582031 7.996094 14.582031 C 6.160156 14.582031 4.46875 13.980469 3.230469 12.894531 C 1.875 11.703125 1.160156 10.011719 1.160156 8 C 1.160156 5.980469 1.875 4.285156 3.230469 3.097656 C 4.464844 2.015625 6.160156 1.417969 8 1.417969 M 8 0.917969 C 4.1875 0.917969 0.660156 3.367188 0.660156 8 C 0.660156 12.609375 4.1875 15.082031 8 15.082031 C 11.808594 15.082031 15.335938 12.546875 15.335938 8 C 15.335938 3.429688 11.808594 0.917969 8 0.917969 Z M 8 0.917969"/><path style="stroke:none;fill-rule:nonzero;fill:#000;fill-opacity:1" d="M 15.5 5.675781 C 15.5 5.675781 14.96875 5.6875 14.96875 6.113281 C 14.96875 7.167969 14.980469 9.425781 12.222656 9.425781 C 10.015625 9.425781 8.960938 8.285156 8.785156 7.027344 C 8.710938 6.503906 8.527344 5.933594 8 5.933594 C 7.472656 5.933594 7.289062 6.503906 7.214844 7.027344 C 7.039062 8.285156 5.984375 9.425781 3.777344 9.425781 C 1.019531 9.425781 1.03125 7.167969 1.03125 6.113281 C 1.03125 5.6875 0.5 5.675781 0.5 5.675781 L 0.5 4.636719 C 0.5 4.636719 1.523438 4.476562 3.082031 4.476562 C 4.640625 4.476562 5.265625 4.476562 6.503906 4.601562 C 7.238281 4.675781 8 4.683594 8 4.683594 C 8 4.683594 8.761719 4.675781 9.496094 4.601562 C 10.738281 4.480469 11.359375 4.480469 12.917969 4.480469 C 14.480469 4.480469 15.5 4.636719 15.5 4.636719 Z M 15.5 5.675781"/><path style="stroke:none;fill-rule:nonzero;fill:#858585;fill-opacity:1" d="M 2.640625 6.492188 C 2.628906 6.695312 2.546875 6.878906 2.351562 6.914062 C 2.328125 6.917969 2.304688 6.921875 2.285156 6.921875 C 2.113281 6.921875 1.960938 6.800781 1.929688 6.625 C 1.859375 6.253906 1.941406 5.90625 2.15625 5.644531 C 2.359375 5.398438 2.660156 5.257812 2.980469 5.257812 C 3.179688 5.257812 3.355469 5.382812 3.355469 5.582031 C 3.355469 5.816406 3.167969 5.914062 2.980469 5.980469 C 2.800781 6.046875 2.65625 6.25 2.640625 6.492188 Z M 2.640625 6.492188"/><path style="stroke:none;fill-rule:nonzero;fill:#858585;fill-opacity:1" d="M 10.585938 6.492188 C 10.574219 6.695312 10.496094 6.878906 10.296875 6.914062 C 10.277344 6.917969 10.253906 6.921875 10.230469 6.921875 C 10.0625 6.921875 9.910156 6.800781 9.875 6.625 C 9.804688 6.253906 9.886719 5.90625 10.105469 5.644531 C 10.304688 5.398438 10.605469 5.257812 10.925781 5.257812 C 11.125 5.257812 11.300781 5.382812 11.300781 5.582031 C 11.300781 5.816406 11.113281 5.914062 10.925781 5.980469 C 10.75 6.046875 10.601562 6.25 10.585938 6.492188 Z M 10.585938 6.492188"/><path style="stroke:none;fill-rule:nonzero;fill:#242424;fill-opacity:1" d="M 8 11.726562 C 6.5625 11.726562 5.535156 10.980469 5.226562 10.507812 C 5.105469 10.328125 5.082031 10.128906 5.164062 9.980469 C 5.222656 9.867188 5.332031 9.804688 5.464844 9.804688 C 5.507812 9.804688 5.554688 9.8125 5.601562 9.828125 C 6.328125 10.054688 7.15625 10.175781 8.007812 10.175781 C 8.847656 10.175781 9.675781 10.054688 10.402344 9.828125 C 10.449219 9.8125 10.492188 9.804688 10.539062 9.804688 C 10.667969 9.804688 10.777344 9.867188 10.839844 9.980469 C 10.917969 10.128906 10.894531 10.328125 10.777344 10.507812 C 10.464844 10.980469 9.4375 11.726562 8 11.726562 Z M 8 11.726562"/></g></svg>

<svg xmlns="http://www.w3.org/2000/svg" width="16pt" height="16pt" viewBox="0 0 16 16"><defs><linearGradient id="a" x1="63.992" x2="63.992" y1="20.702" y2="106.73" gradientTransform="scale(.125)" gradientUnits="userSpaceOnUse"><stop offset=".5" style="stop-color:#fee133;stop-opacity:1"/><stop offset=".612" style="stop-color:#fede32;stop-opacity:1"/><stop offset=".708" style="stop-color:#fcd32f;stop-opacity:1"/><stop offset=".797" style="stop-color:#fac12b;stop-opacity:1"/><stop offset=".883" style="stop-color:#f7a924;stop-opacity:1"/><stop offset=".9" style="stop-color:#f6a323;stop-opacity:1"/></linearGradient></defs><path d="M8 14.832C4.586 14.832.91 12.695.91 8S4.586 1.168 8 1.168c1.89 0 3.64.629 4.93 1.766C14.344 4.176 15.086 5.93 15.086 8c0 2.063-.742 3.809-2.156 5.059-1.29 1.144-3.043 1.773-4.93 1.773m0 0" style="stroke:none;fill-rule:nonzero;fill:url(#a)"/><path d="M8 1.418c1.828 0 3.523.605 4.766 1.703 1.355 1.195 2.07 2.883 2.07 4.879 0 1.988-.715 3.672-2.07 4.871-1.246 1.102-2.938 1.711-4.77 1.711-1.836 0-3.527-.602-4.766-1.687C1.875 11.703 1.16 10.012 1.16 8c0-2.02.715-3.715 2.07-4.902C4.465 2.016 6.16 1.418 8 1.418m0-.5C4.188.918.66 3.368.66 8c0 4.61 3.528 7.082 7.34 7.082 3.809 0 7.336-2.535 7.336-7.082C15.336 3.43 11.809.918 8 .918m0 0" style="stroke:none;fill-rule:nonzero;fill:#eb8f00;fill-opacity:1"/><path d="M15.5 5.676s-.531.011-.531.437c0 1.055.011 3.313-2.746 3.313-2.207 0-3.262-1.14-3.438-2.399-.074-.523-.258-1.093-.785-1.093s-.71.57-.785 1.093c-.176 1.258-1.23 2.399-3.438 2.399-2.757 0-2.746-2.258-2.746-3.313 0-.426-.531-.437-.531-.437v-1.04s1.023-.16 2.582-.16 2.184 0 3.422.126C7.238 4.676 8 4.684 8 4.684s.762-.008 1.496-.082c1.242-.122 1.863-.122 3.422-.122 1.562 0 2.582.157 2.582.157Zm0 0" style="stroke:none;fill-rule:nonzero;fill:#000;fill-opacity:1"/><path d="M2.64 6.492c-.011.203-.093.387-.288.422a.36.36 0 0 1-.422-.29c-.07-.37.011-.718.226-.98.203-.246.504-.386.824-.386.2 0 .375.125.375.324 0 .234-.187.332-.375.398-.18.067-.324.27-.34.512M10.586 6.492c-.012.203-.09.387-.29.422a.3.3 0 0 1-.066.008.366.366 0 0 1-.355-.297c-.07-.371.012-.719.23-.98.2-.247.5-.387.82-.387.2 0 .376.125.376.324 0 .234-.188.332-.375.398-.176.067-.324.27-.34.512m0 0" style="stroke:none;fill-rule:nonzero;fill:#858585;fill-opacity:1"/><path d="M8 11.727c-1.437 0-2.465-.747-2.773-1.22-.122-.179-.145-.378-.063-.527a.32.32 0 0 1 .3-.175q.066 0 .138.023a8.2 8.2 0 0 0 2.406.348c.84 0 1.668-.121 2.394-.348a.4.4 0 0 1 .137-.023c.129 0 .238.062.3.175.079.149.056.348-.062.528-.312.472-1.34 1.219-2.777 1.219m0 0" style="stroke:none;fill-rule:nonzero;fill:#242424;fill-opacity:1"/></svg>
